X: 6
T: Mouse In The Mug, The
C: Tom McElvogue
Z: Guilleflute
S: https://thesession.org/tunes/362#setting46320
R: jig
M: 6/8
L: 1/8
K: Gmaj
|:G2B BAB|dgf g2d|ege dBG|ABG E2D|
GGG EGD|GGG Bdg|ege dge|1 dBA ABA:|2 dBA ABc||
d2B dgb|abg e2g|dgg egg|dBA ABc|
d2B dgb|abg e2g|dgg dBA|AGF GBc|
d2B dgb|abg e2g|dgg egg|dBA ABA|
GGG EGD|GGG Bdg|ege dge|dBA ABA|G6||

